X:0180
M:6/8
L:1/8
Q:3/8=120
K:G
gfg dcB|gfg dcB|gfg def|AFA c2A |
gfg dcB|gfg d2B|c2a B2g|AFA cBA:|

